!!!!SEGMENT: Ror0102-Hor_chel_ciel_et_la_terra_el_vento_tace.krn
!!!id: Ror0102
!!!AGN: Madrigal
!!!voices: 5
!!!COM: Cipriano de Rore
!!!OTL: Hor che'l ciel et la terra e'l vento tace
**kern	**text	**kern	**text	**kern	**text	**kern	**text	**kern	**text
*part5	*part5	*part4	*part4	*part3	*part3	*part2	*part2	*part1	*part1
*staff5	*staff5	*staff4	*staff4	*staff3	*staff3	*staff2	*staff2	*staff1	*staff1
*I"Bassus	*	*I"Tenor II	*	*I"Tenor I	*	*I"Altus	*	*I"Superius	*
*I'B	*	*I'T. II	*	*I'T. I	*	*I'A	*	*I'S	*
*clefF4	*	*clefGv2	*	*clefGv2	*	*clefG2	*	*clefG2	*
*k[b-]	*	*k[b-]	*	*k[b-]	*	*k[b-]	*	*k[b-]	*
*F:	*	*F:	*	*F:	*	*F:	*	*F:	*
*M2/1	*	*M2/1	*	*M2/1	*	*M2/1	*	*M2/1	*
*met(C)	*	*met(C)	*	*met(C)	*	*met(C)	*	*met(C)	*
!!section: Section: Hor che'l ciel et la terra e'l vento tace
!!!OMD: Section: Hor che'l ciel et la terra e'l vento tace
=1	=1	=1	=1	=1	=1	=1	=1	=1	=1
0r	.	1r	.	0r	.	1r	.	2.g	Hor
.	.	.	.	.	.	.	.	4g	che’l
.	.	2r	.	.	.	2.g	Hor	2dd	ciel
.	.	[2G	Hor	.	.	.	.	4dd	et
.	.	.	.	.	.	4g	che’l	4ee-X	la
=2	=2	=2	=2	=2	=2	=2	=2	=2	=2
1r	.	4G]	.	4r	.	2b-y	ciel	1dd	ter-
.	.	4G	che’l	2G	Hor	.	.	.	.
.	.	2g	ciel	.	.	2.b-y	et	.	.
.	.	.	.	4G	che’l	.	.	.	.
2r	.	4g	et	2d	ciel	.	.	4dd	-ra e’l
.	.	4f#X	la	.	.	4a	la	2dd	ven-
[2G	Hor	[2g	ter-	4d	et	2b-y	ter-	.	.
.	.	.	.	4e-X	la	.	.	4g	-to
=3	=3	=3	=3	=3	=3	=3	=3	=3	=3
4G]	.	4g]	.	2d	ter-	4g	-ra e’l	2bnX	ta-
4G	che’l	4d	-ra e’l	.	.	4.g	ven-	.	.
2C	ciel	4e-X	ven-	4c	-ra e’l	.	.	2cc	-ce,
.	.	.	.	.	.	8fL	.	.	.
.	.	4e-i	-to	2G	ven-	8g	.	.	.
.	.	.	.	.	.	8aJ	.	.	.
4G	et	2d	ta-	.	.	4b-y	.	1r	.
4F#X	la	.	.	4A	-to	4a	-to	.	.
2G	ter-	2d	-ce,	2B-y	ta-	2g	ta-	.	.
=4	=4	=4	=4	=4	=4	=4	=4	=4	=4
2D	-ra e’l	2r	.	2A	-ce,	2f#X	-ce,	2.dd	Et
2.B-y	ven-	2.G	Et	2r	.	4r	.	.	.
.	.	.	.	.	.	2g	Et	4dd	le
.	.	.	.	1r	.	.	.	2dd	fe-
4B-y	-to	4G	le	.	.	4d	le	.	.
2A	ta-	2c	fe-	.	.	2e	fe-	4cc	-re e
.	.	.	.	.	.	.	.	4a	gli au-
=5	=5	=5	=5	=5	=5	=5	=5	=5	=5
1G	-ce,	4B-y	-re e	2d	Et	4g	-re e	2b-y	-gel-
.	.	4G	gli au-	.	.	4g	gli au-	.	.
.	.	2.B-y	-gel-	4d	le	2g	-gel-	4g	-li il
.	.	.	.	2d	fe-	.	.	4.dd	so-
1r	.	.	.	.	.	4f	-li il	.	.
.	.	.	.	.	.	.	.	8ee	.
.	.	4A	-li il	2c	-re e	4a	so-	4ff	.
.	.	4c	so-	.	.	4g	-no af-	4ee	-no af-
.	.	4c	-no af-	4A	gli au-	[4a	-fre-	[4ff	-fre-
=6	=6	=6	=6	=6	=6	=6	=6	=6	=6
1r	.	4.d	-fre-	2B-y	-gel-	8aL]	.	8ffL]	.
.	.	.	.	.	.	16gL	.	8eeJ	.
.	.	.	.	.	.	16fJJ	.	.	.
.	.	.	.	.	.	4g	.	2dd	.
.	.	8e	.	.	.	.	.	.	.
.	.	4f	.	2A	-li il	4a	-na,	.	.
.	.	4e	-na,	.	.	4a	il	4cc#i	.
4r	.	4r	.	4.G	so-	2b-y	so-	1dd	-na,
2d	Et	4g	Et	.	.	.	.	.	.
.	.	.	.	8A	.	.	.	.	.
.	.	4f	le	4B-y	.	4b-y	-no af-	.	.
4d	le	[4g	fe-	4G	-no af-	[4b-y	-fre-	.	.
=7	=7	=7	=7	=7	=7	=7	=7	=7	=7
2d	fe-	4g]	.	2B-y	-fre-	8b-L]	.	1r	.
.	.	.	.	.	.	8a	.	.	.
.	.	4d	-re e	.	.	8f	.	.	.
.	.	.	.	.	.	8gJ	.	.	.
4c	-re e	4e	gli au-	4A	-na,	2a	-na,	.	.
4A	gli au-	4.f	-gel-	4c	Et	.	.	.	.
4.B-y	-gel-	.	.	4d	le	2r	.	4r	.
.	.	8eL	.	.	.	.	.	.	.
.	.	8d	.	8GL	fe-	.	.	2dd	Et
8A	.	8cJ	.	8AJ	.	.	.	.	.
4G	.	4B-y	.	8B-yL	.	4r	.	.	.
.	.	.	.	8c	.	.	.	.	.
4F	-li il	4A	-li il	8d	.	[4a	Et	4dd	le
.	.	.	.	8eJ	.	.	.	.	.
=8	=8	=8	=8	=8	=8	=8	=8	=8	=8
8DL	so-	2A	so-	2f	.	4a]	.	2dd	fe-
8E	.	.	.	.	.	.	.	.	.
8F	.	.	.	.	.	4a	le	.	.
8GJ	.	.	.	.	.	.	.	.	.
4A	.	4A	-no af-	4e	-re e	2a	fe-	4cc	-re e
4D	-no af-	2d	-fre-	4f	gli au-	.	.	4a	gli au-
2G	-fre-	.	.	4d	-gel-	2g	-re e	2b-y	-gel-
.	.	4G	-na,	4e	-li il	.	.	.	.
4F	-na,	4r	.	4f	so-	4c	gli au-	4a	-li il
4BB-y	il	4B-y	il	4d	-no af-	[4f	-gel-	[4dd	so-
=9	=9	=9	=9	=9	=9	=9	=9	=9	=9
2D	so-	4.A	so-	2d	-fre-	4f]	.	8ddL]	.
.	.	.	.	.	.	.	.	8eeJ	.
.	.	.	.	.	.	4d	-li il	4ff	.
.	.	8B-y	.	.	.	.	.	.	.
4C	-no af-	4c	.	4G	-na,	4g	so-	4ee	-no af-
4.D	-fre-	4f	-no af-	4B-y	af-	4d	-no af-	4.ff	-fre-
.	.	2f	-fre-	2A	-fre-	2a	-fre-	.	.
8EL	.	.	.	.	.	.	.	8ee	.
8F	.	.	.	.	.	.	.	2dd	.
8DJ	.	.	.	.	.	.	.	.	.
2A	.	2e	-na,	4A	-na,	4a	-na,	.	.
.	.	.	.	4e	Not-	4a	Not-	4cc#i	.
=10	=10	=10	=10	=10	=10	=10	=10	=10	=10
4D	-na,	4r	.	4f#X	-te’l	4a	-te’l	1dd	-na,
2G	Not-	4d	Not-	2g	car-	2b-y	car-	.	.
.	.	4d	-te’l	.	.	.	.	.	.
2A	-te’l	2c	car-	4e	-ro	4a	-ro	.	.
.	.	.	.	4fny	stel-	4cc	stel-	1r	.
2B-y	car-	4f	-ro	2d	-la-	4b-y	-la-	.	.
.	.	4d	stel-	.	.	4g	-to in	.	.
[4A	-ro	[4e	-la-	4c	-to in	[4a	gi-	.	.
=11	=11	=11	=11	=11	=11	=11	=11	=11	=11
4A]	.	4e]	.	4c	gi-	4a]	.	2r	.
4D	stel-	4f	-to in	4A	-ro	4a	-ro	.	.
2G	-la-	2.d	gi-	2B-y	me-	2g	me-	4r	.
.	.	.	.	.	.	.	.	2dd	Not-
4D	-to in	.	.	2A	-na,	4f	-na,	.	.
2A	gi-	4c	-ro	.	.	2cc	in	4ee	-te’l
.	.	2f	me-	2r	.	.	.	2ff	car-
[4B-y	-ro	.	.	.	.	[4b-y	gi-	.	.
=12	=12	=12	=12	=12	=12	=12	=12	=12	=12
4B-]	.	2g	-na,	2r	.	8b-L]	.	4dd	-ro
.	.	.	.	.	.	8a	.	.	.
2c	me-	.	.	.	.	8g	.	4ee-X	stel-
.	.	.	.	.	.	8fJ	.	.	.
.	.	2r	.	2A	Not-	4e	.	2cc	-la-
4F	-na,	.	.	.	.	4f	-ro	.	.
4r	.	4r	.	4G	-te’l	2d	me-	4b-y	-to in
4G	Not-	4d	Not-	2G	car-	.	.	4b-y	gi-
4C	-te’l	4e	-te’l	.	.	2c	-na,	4g	-ro
[4F	car-	[4f	car-	4F	-ro	.	.	[4a	me-
=13	=13	=13	=13	=13	=13	=13	=13	=13	=13
4F]	.	4f]	.	4c	stel-	2r	.	8aL]	.
.	.	.	.	.	.	.	.	16gL	.
.	.	.	.	.	.	.	.	16aJJ	.
2G	-ro	4d	-ro	2B-y	-la-	.	.	4b-y	.
.	.	4e-X	stel-	.	.	4r	.	4g	-na,
2A	stel-	2c	-la-	4A	-to in	4e	Not-	4cc	Not-
.	.	.	.	4c	gi-	4f#X	-te’l	4a	-te’l
2G	-la-	4B-y	-to in	4d	-ro	2g	car-	2dd	car-
.	.	4B-y	gi-	2G	me-	.	.	.	.
4C	-to in	4G	-ro	.	.	4e	-ro	4cc	-ro
=14	=14	=14	=14	=14	=14	=14	=14	=14	=14
8DL	gi-	4.d	me-	1F	-na.,	4f	stel-	4a	stel-
8C	.	.	.	.	.	.	.	.	.
8BB-y	.	.	.	.	.	2d	-la-	2b-y	-la-
8CJ	.	8e	.	.	.	.	.	.	.
8DL	.	2f	.	.	.	.	.	.	.
8E	.	.	.	.	.	.	.	.	.
8F	.	.	.	.	.	4c	-to in	4a	-to in
8GJ	.	.	.	.	.	.	.	.	.
4A	.	4e	-na,	4r	.	4c	gi-	4a	gi-
4D	-ro	4d	Et	4f	Et	4A	-ro	4a	-ro
2G	me-	4d	nel	4d	nel	2B-y	me-	2g	me-
.	.	4G	suo	4e	suo	.	.	.	.
=15	=15	=15	=15	=15	=15	=15	=15	=15	=15
2F	-na,	2c	let-	2.f	let-	4A	-na,	2a	-na,
.	.	.	.	.	.	4f	Et	.	.
2r	.	4B-y	-to il	.	.	4d	nel	2r	.
.	.	2A	mar	2c	-to il	4e	suo	.	.
2F	Et	.	.	.	.	2.f	let-	1r	.
.	.	4A	senz’	2d	mar	.	.	.	.
4D	nel	4B-y	on-	.	.	.	.	.	.
4E	suo	4G	-da	[4c	senz’	4g	-to il	.	.
=16	=16	=16	=16	=16	=16	=16	=16	=16	=16
4F	let-	2d	gia-	4c]	.	4a	mar	4ff	Et
4G	-to il	.	.	4B-y	on-	4d	senz’	4dd	nel
4C	mar	2.c	-ce,	4G	-da	4g	on-	4ee	suo
4F	senz’	.	.	2A	gia-	4f	-da	2ff	let-
4.F	on-	.	.	.	.	2.a	gia-	.	.
.	.	2f	Et	4A	-ce,	.	.	2cc	-to il
8G	.	.	.	.	.	.	.	.	.
4A	.	.	.	2r	.	.	.	.	.
4B-y	-da	4d	nel	.	.	4f	-ce,	[4dd	mar
=17	=17	=17	=17	=17	=17	=17	=17	=17	=17
4A	gia-	4e	suo	4r	.	4r	.	4dd]	.
4A	-ce,	4f	let-	4F	Et	4a	Et	4cc	senz’
4r	.	4f	-to il	4B-y	nel	4d	nel	4b-y	on-
4G	Et	2d	mar	4B-y	suo	4d	suo	4g	-da
2F	nel	.	.	4.A	let-	2f	let-	2a	gia-
.	.	2c	senz’	.	.	.	.	.	.
.	.	.	.	8B-y	.	.	.	.	.
4C	suo	.	.	4c	.	4e-X	-to il	[2g	-ce,
[4G	let-	[4B-y	on-	4d	-to il	4d	mar	.	.
=18	=18	=18	=18	=18	=18	=18	=18	=18	=18
4G]	.	4B-]	.	4G	mar	4d	senz’	2g]	.
4G	-to il	8AL	.	4d	senz’	2b-y	on-	.	.
.	.	8GJ	.	.	.	.	.	.	.
4D	mar	8FL	.	4d	on-	.	.	2r	.
.	.	8G	.	.	.	.	.	.	.
4F	senz’	8A	.	4c	-da	2a	-da	.	.
.	.	8B-yJ	.	.	.	.	.	.	.
4E-X	on-	4.c	.	2e-X	gia-	.	.	1r	.
4C	-da	.	.	.	.	4.g	gia-	.	.
.	.	8B-y	-da	.	.	.	.	.	.
2D	gia-	2A	gia-	2d	-ce,	.	.	.	.
.	.	.	.	.	.	8f#i	.	.	.
.	.	.	.	.	.	4f#i	.	.	.
=19	=19	=19	=19	=19	=19	=19	=19	=19	=19
2G	-ce,	2G	-ce,	1d	Veg-	2g	-ce,	1bnX	Veg-
2r	.	1G	Veg-	.	.	2r	.	.	.
1C	Veg-	.	.	2c	-gio,	1e	Veg-	1cc	-gio,
.	.	2G	-gio,	2r	.	.	.	.	.
=20	=20	=20	=20	=20	=20	=20	=20	=20	=20
2BB-y	-gio,	4r	.	4r	.	2f	-gio,	4r	.
.	.	2B-y	pen-	2f	pen-	.	.	2dd	pen-
4r	.	.	.	.	.	4r	.	.	.
2F	pen-	4A	-so,	4c	-so,	2a	pen-	4cc	-so,
.	.	2r	.	4r	.	.	.	4r	.
4C	-so,	.	.	2c	ar-	4g	-so,	2ee-X	ar-
2r	.	4.G	ar-	.	.	4r	.	.	.
.	.	.	.	4B-y	-do,	[4g	ar-	4dd	-do,
.	.	8A	.	.	.	.	.	.	.
=21	=21	=21	=21	=21	=21	=21	=21	=21	=21
2E-X	ar-	2B-y	.	1e-X	pian-	4g]	.	2r	.
.	.	.	.	.	.	4g	-do,	.	.
2E-i	-do,	2B-y	-do,	.	.	1b-y	pian-	1g	pian-
1r	.	1r	.	1d	-go,	.	.	.	.
.	.	.	.	.	.	2a	-go,	2f#X	-go,
=22	=22	=22	=22	=22	=22	=22	=22	=22	=22
1E-i	pian-	2r	.	1G	pian-	2r	.	1r	.
.	.	1B-y	pian-	.	.	1g	pian-	.	.
1D	-go,	.	.	1d	-go,	.	.	2r	.
.	.	2A	-go,	.	.	2f#X	-go,	2dd	e
=23	=23	=23	=23	=23	=23	=23	=23	=23	=23
4r	.	4r	.	0r	.	4r	.	4ee	chi
4C	e	2c	e	.	.	4g	e	4ee	mi
4F	chi	.	.	.	.	4a	chi	2ff	sfa-
4D	mi	2d	chi	.	.	4a	mi	.	.
2G	sfa-	.	.	.	.	2b-y	sfa-	4dd	-ce
.	.	4d	mi	.	.	.	.	2dd	Sem-
2C	-ce	2e-X	sfa-	.	.	4g	-ce	.	.
.	.	.	.	.	.	[4g	Sem-	4cc	-pre
=24	=24	=24	=24	=24	=24	=24	=24	=24	=24
1r	.	4d	-ce	1r	.	4g]	.	4b-y	m’è i-
.	.	4d	Sem-	.	.	4f	-pre	2a	-nan-
.	.	4c	-pre	.	.	4e	m’è i-	.	.
.	.	4B-y	m’è i-	.	.	2d	-nan-	4g	-zi
2D	e	2A	-nan-	2r	.	.	.	4g	per
.	.	.	.	.	.	4d	-zi	4f#X	mia
4E	chi	4G	-zi	2G	e	[2c	per	4g	dol-
4E	mi	4g	per	.	.	.	.	4g	-ce
=25	=25	=25	=25	=25	=25	=25	=25	=25	=25
2F	sfa-	4f	mia	4A	chi	4c]	.	2cc	pe-
.	.	2f	dol-	4A	mi	4c	mia	.	.
4D	-ce	.	.	2B-y	sfa-	4f	dol-	2dd	-na,
2d	Sem-	4d	-ce	.	.	4g	-ce	.	.
.	.	2e	pe-	2A	-ce	2a	pe-	2r	.
4c	-pre	.	.	.	.	.	.	.	.
4B-y	m’è i-	2f	-na,	2r	.	4d	-na,	4r	.
[4A	-nan-	.	.	.	.	4f	Sem-	[4cc	Sem-
=26	=26	=26	=26	=26	=26	=26	=26	=26	=26
4A]	.	0r	.	4r	.	4e	-pre	4cc]	.
4G	-zi	.	.	2d	Sem-	4g	m’è i-	4b-y	-pre
4F	per	.	.	.	.	2a	-nan-	2cc	m’è i-
4F	mia	.	.	4c	-pre	.	.	.	.
4.D	dol-	.	.	4B-y	m’è i-	4f	-zi	2dd	-nan-
.	.	.	.	2A	-nan-	2f	per	.	.
8E	.	.	.	.	.	.	.	.	.
4F	.	.	.	.	.	.	.	2cc	-zi
4C	-ce	.	.	4G	-zi	4e-X	mia	.	.
=27	=27	=27	=27	=27	=27	=27	=27	=27	=27
2D	pe-	2r	.	4G	per	4d	dol-	4b-y	per
.	.	.	.	4F#X	mia	4d	-ce	4a	mia
2C	-na.	4r	.	4G	dol-	2e-i	pe-	2cc	dol-
.	.	4G	per	4G	-ce	.	.	.	.
1r	.	4G	mia	2B-y	pe-	2d	-na.	4dd	-ce
.	.	2d	dol-	.	.	.	.	4.ff	pe-
.	.	.	.	2A	-na.	2r	.	.	.
.	.	.	.	.	.	.	.	16eeLL	.
.	.	.	.	.	.	.	.	16ddJJ	.
.	.	4c	-ce	.	.	.	.	[4ee	.
=28	=28	=28	=28	=28	=28	=28	=28	=28	=28
2B-y	Guer-	2.f	pe-	0r	.	1r	.	8eeL]	.
.	.	.	.	.	.	.	.	8ddJ	.
.	.	.	.	.	.	.	.	2dd	.
4A	-ra è’l	.	.	.	.	.	.	.	.
4A	mio	4e	-na.	.	.	.	.	4cc#i	.
2G	sta-	4r	.	.	.	1b-y	Guer-	1dd	-na.
.	.	2g	Guer-	.	.	.	.	.	.
4G	-to,	.	.	.	.	.	.	.	.
[4d	d’i-	4f	-ra è’l	.	.	.	.	.	.
=29	=29	=29	=29	=29	=29	=29	=29	=29	=29
4d]	.	4f	mio	1r	.	4a	-ra è’l	2r	.
2c	-ra e	2e	sta-	.	.	4a	mio	.	.
.	.	.	.	.	.	2g	sta-	2dd	Guer-
4B-y	di	4d	-to,	.	.	.	.	.	.
2c	duol	2e	d’i-	2r	.	4g	-to,	4cc	-ra è’l
.	.	.	.	.	.	2a	d’i-	4cc	mio
2d	pie-	4f	-ra e	2B-y	Guer-	.	.	4.b-y	sta-
.	.	4d	di	.	.	[4g	-ra e	.	.
.	.	.	.	.	.	.	.	8cc	.
=30	=30	=30	=30	=30	=30	=30	=30	=30	=30
2D	-na,	4.d	duol	4A	-ra è’l	4g]	.	4dd	.
.	.	.	.	4A	mio	4f#i	di	4a	-to,
.	.	8c	.	.	.	.	.	.	.
2r	.	8BnXL	.	2G	sta-	1g	duol	2dd	d’i-
.	.	8A	.	.	.	.	.	.	.
.	.	8Bni	.	.	.	.	.	.	.
.	.	8cJ	.	.	.	.	.	.	.
2G	Et	2d	.	4G	-to,	.	.	4bnX	-ra e
.	.	.	.	2d	d’i-	.	.	4bni	di
4.F	sol	[2f	pie-	.	.	[2a	pie-	2cc	duol
.	.	.	.	[4c	-ra e	.	.	.	.
8E	di	.	.	.	.	.	.	.	.
=31	=31	=31	=31	=31	=31	=31	=31	=31	=31
4D	lei	2f]	.	4c]	.	4a]	.	2dd	pie-
4D	pen-	.	.	4BnXi	di	4d	-na,	.	.
2C	-san-	2e	-na,	2c	duol	4r	.	2g	-na,
.	.	.	.	.	.	4g	Et	.	.
4BB-y	-do ho	4r	.	2d	pie-	2.b-y	sol	1r	.
4.BB-y	qual-	4f	Et	.	.	.	.	.	.
.	.	4.f	sol	2d	-na,	.	.	.	.
8CL	.	.	.	.	.	.	.	.	.
8D	.	.	.	.	.	4a	di	.	.
8EJ	.	8e	di	.	.	.	.	.	.
=32	=32	=32	=32	=32	=32	=32	=32	=32	=32
4F	.	2d	lei	4r	.	4a	lei	1r	.
4G	-che	.	.	4B-y	Et	4b-y	pen-	.	.
2C	pa-	4c	pen-	2.e-X	sol	2g	-san-	.	.
.	.	2c	-san-	.	.	.	.	.	.
2G	-ce,	.	.	.	.	4g	-do ho	4r	.
.	.	2B-y	-do ho	4d	di	4g	qual-	2dd	Et
2r	.	.	.	4d	lei	4f	-che	.	.
.	.	[4F	qual-	4c	pen-	[4a	pa-	[4ff	sol
=33	=33	=33	=33	=33	=33	=33	=33	=33	=33
0r	.	8FL]	.	2.c	-san-	2a]	.	4ff]	.
.	.	8G	.	.	.	.	.	.	.
.	.	8A	.	.	.	.	.	4ee	di
.	.	8B-yJ	.	.	.	.	.	.	.
.	.	4c	.	.	.	4g	-ce,	4ee	lei
.	.	4d	-che	4B-y	-do ho	4b-y	Et	4ff	pen-
.	.	2f	pa-	8B-yL	qual-	2b-y	sol	2.dd	-san-
.	.	.	.	8A	.	.	.	.	.
.	.	.	.	8B-y	.	.	.	.	.
.	.	.	.	8cJ	.	.	.	.	.
.	.	2f	-ce,	8dL	.	4a	di	.	.
.	.	.	.	8eJ	.	.	.	.	.
.	.	.	.	[4f	.	[4a	lei	4cc	-do ho
=34	=34	=34	=34	=34	=34	=34	=34	=34	=34
2r	.	1r	.	4f]	.	4a]	.	4dd	qual-
.	.	.	.	4g	-che	4b-y	pen-	4dd	-che
4r	.	.	.	2c	pa-	1g	-san-	2ee-X	pa-
4c	Et	.	.	.	.	.	.	.	.
4.B-y	sol	2G	Et	2d	-ce,	.	.	[1dd	-ce,
8A	di	.	.	.	.	.	.	.	.
2G	lei	[2B-y	sol	4r	.	[2g	-do ho	.	.
.	.	.	.	4d	Et	.	.	.	.
=35	=35	=35	=35	=35	=35	=35	=35	=35	=35
4G	pen-	2B-]	.	2d	sol	4g]	.	2dd]	.
2D	-san-	.	.	.	.	4.f	qual-	.	.
.	.	4A	di	4d	di	.	.	2r	.
.	.	.	.	.	.	8g	.	.	.
2F	-do ho	2A	lei	4c	lei	2a	.	.	.
.	.	.	.	4c	pen-	.	.	4r	.
4.G	qual-	4B-y	pen-	2g	-san-	4d	-che	4dd	ho
.	.	[2G	-san-	.	.	[2b-y	pa-	4dd	qual-
8AL	.	.	.	.	.	.	.	.	.
8B-y	.	.	.	4d	-do ho	.	.	4dd	-che
8cJ	.	.	.	.	.	.	.	.	.
=36	=36	=36	=36	=36	=36	=36	=36	=36	=36
4d	.	4G]	.	4d	qual-	4b-]	.	1dd	pa-
4D	-che	4F#X	-do ho	4d	-che	4a	-ce,	.	.
4.B-y	pa-	4G	qual-	1.d	pa-	4r	.	.	.
.	.	4G	-che	.	.	4g	ho	.	.
8A	.	.	.	.	.	.	.	.	.
1G	.	1B-y	pa-	.	.	4g	qual-	[1ddl	-ce.
.	.	.	.	.	.	4g	-che	.	.
.	.	.	.	.	.	2g	pa-	.	.
=37	=37	=37	=37	=37	=37	=37	=37	=37	=37
00D	-ce.	00A	-ce.	00d	-ce.	00f#X	-ce.	00dd]	.
=38||	=38||	=38||	=38||	=38||	=38||	=38||	=38||	=38||	=38||
*M2/1	*	*M2/1	*	*M2/1	*	*M2/1	*	*M2/1	*
*met(C)	*	*met(C)	*	*met(C)	*	*met(C)	*	*met(C)	*
!!section: Section: Così sol d'una chiara fonte viva
!!!OMD: Section: Così sol d'una chiara fonte viva
1C	Co-	1e	Co-	1G	Co-	2r	.	0r	.
.	.	.	.	.	.	2.g	Co-	.	.
2C	-sì	2e	-sì	2G	-sì	.	.	.	.
.	.	.	.	.	.	4g	-sì	.	.
[2F	sol	2f	sol	2A	sol	[2c	sol	.	.
=39	=39	=39	=39	=39	=39	=39	=39	=39	=39
4F]	.	2f	d’u-	2A	d’u-	4c]	.	1r	.
4D	d’u-	.	.	.	.	2d	d’u-	.	.
4D	-na	4f	-na	4A	-na	.	.	.	.
2G	chia-	2d	chia-	2B-y	chia-	4d	-na	.	.
.	.	.	.	.	.	2e-X	chia-	2r	.
4C	-ra	4c	-ra	2G	-ra	.	.	.	.
[2G	fon-	4.B-y	fon-	.	.	4d	-ra	[2dd	Co-
.	.	.	.	[4B-y	fon-	[4g	fon-	.	.
.	.	8A	.	.	.	.	.	.	.
=40	=40	=40	=40	=40	=40	=40	=40	=40	=40
4G]	.	4G	.	4B-]	.	4g]	.	2dd]	.
4F#X	-te	4d	-te	4A	-te	4a	-te	.	.
2G	vi-	2BnX	vi-	2d	vi-	2g	vi-	2dd	-sì
1C	-va	4c	-va,	1c	-va,	2g	-va,	1ee	sol
.	.	4G	Co-	.	.	.	.	.	.
.	.	4G	-sì	.	.	4r	.	.	.
.	.	[4c	sol	.	.	4g	Co-	.	.
=41	=41	=41	=41	=41	=41	=41	=41	=41	=41
1r	.	4c]	.	4r	.	4g	-sì	2.ee	d’u-
.	.	4A	d’u-	4c	Co-	2a	sol	.	.
.	.	4A	-na	4c	-sì	.	.	.	.
.	.	2d	chia-	4.f	sol	4a	d’u-	4ff	-na
4r	.	.	.	.	.	4a	-na	2dd	chia-
.	.	.	.	8eL	.	.	.	.	.
4G	Mo-	4G	-ra	8d	.	4b-y	chia-	.	.
.	.	.	.	8cJ	.	.	.	.	.
4G	-ve’l	[2d	fon-	4B-y	.	4g	-ra	4dd	-ra
8DL	dol-	.	.	[4A	d’u-	[4a	fon-	[4ff	fon-
8EJ	.	.	.	.	.	.	.	.	.
=42	=42	=42	=42	=42	=42	=42	=42	=42	=42
8FL	.	4d]	.	4A]	.	4a]	.	4ff]	.
8GJ	.	.	.	.	.	.	.	.	.
4A	.	4c#X	-te	4A	-na	4a	-te	4ee	-te
4D	-ce e	2d	vi-	4.f	chia-	2.a	vi-	2dd	vi-
4D	l’a-	.	.	.	.	.	.	.	.
.	.	.	.	8f	-ra	.	.	.	.
2F	-ma-	4A	-va	4f	fon-	.	.	4cc	-va
.	.	4A	Mo-	4c	-te	4f	-va	2cc	Mo-
2C	-ro	4ci	-ve’l	2e-X	vi-	[2g	Mo-	.	.
.	.	8GL	dol-	.	.	.	.	4cc	-ve’l
.	.	8AJ	.	.	.	.	.	.	.
=43	=43	=43	=43	=43	=43	=43	=43	=43	=43
4r	.	8B-yL	.	4d	-va	4g]	.	4b-y	dol-
.	.	8cJ	.	.	.	.	.	.	.
4D	ond’	4d	.	4d	Mo-	4f	-ve’l	4a	-ce e
2E-X	io	4G	-ce e	4B-y	-ve’l	2e-X	dol-	4g	l’a-
.	.	4G	l’a-	4.B-y	dol-	.	.	2g	-ma-
4BB-y	mi	2B-y	-ma-	.	.	4d	-ce e	.	.
.	.	.	.	8cL	.	.	.	.	.
2B-y	pa-	.	.	8d	.	4d	l’a-	4f	-ro
.	.	.	.	8eJ	.	.	.	.	.
.	.	2F	-ro	4f	.	2c	-ma-	4r	.
4A	-sco,	.	.	4f	-ce e	.	.	4cc	ond’
=44	=44	=44	=44	=44	=44	=44	=44	=44	=44
4r	.	4r	.	4f	l’a-	2B-y	-ro	2dd	io
4B-y	ond’	4f	ond’	2d	-ma-	.	.	.	.
4B-y	io	4f	io	.	.	4r	.	4dd	mi
4A	mi	4f	mi	4c	-ro	4f	ond’	4.ff	pa-
2B-y	pa-	4.d	pa-	4r	.	4.f	io	.	.
.	.	.	.	.	.	.	.	8ee	.
.	.	.	.	4B-y	ond’	.	.	2dd	.
.	.	8c	.	.	.	8e	.	.	.
2F	-sco,	8dL	.	4B-y	io	8fL	.	.	.
.	.	8eJ	.	.	.	8gJ	.	.	.
.	.	[4f	.	4A	mi	4a	.	[4cc	.
=45	=45	=45	=45	=45	=45	=45	=45	=45	=45
1r	.	8fL]	.	2B-y	pa-	4d	mi	4cc]	.
.	.	8eJ	.	.	.	.	.	.	.
.	.	4d	.	.	.	2.f	pa-	4.b-y	.
.	.	2c	.	2F	-sco,	.	.	.	.
.	.	.	.	.	.	.	.	8a	.
.	.	.	.	.	.	.	.	4a	.
2d	U-	2B-y	-sco,	4r	.	1f	-sco,	1b-y	-sco,
.	.	.	.	4f	U-	.	.	.	.
4B-y	-na	4r	.	4d	-na	.	.	.	.
[4B-y	man	[4d	U-	4d	man	.	.	.	.
=46	=46	=46	=46	=46	=46	=46	=46	=46	=46
4B-]	.	4d]	.	2g	so-	2r	.	1r	.
2c	so-	2e	-na	.	.	.	.	.	.
.	.	.	.	4g	-la	4r	.	.	.
4d	-la	4f	man	4f	mi	2a	U-	.	.
4A	mi	2c	so-	4e	ri-	.	.	2r	.
4A	ri-	.	.	4.f	-sa-	4a	-na	.	.
4.B-y	-sa-	[2d	-la	.	.	2f	man	2dd	U-
.	.	.	.	8eL	.	.	.	.	.
.	.	.	.	8d	.	.	.	.	.
8A	-na e	.	.	8cJ	.	.	.	.	.
=47	=47	=47	=47	=47	=47	=47	=47	=47	=47
2G	pun-	2d]	.	4B-y	.	2g	so-	4dd	-na
.	.	.	.	4G	-na e	.	.	4bnX	man
4F	-ge,	4A	mi	2c	pun-	4a	-la	1cc	so-
4C	U-	4G	ri-	.	.	4e	mi	.	.
4F	-na	2A	-sa-	2c	-ge,	4f	ri-	.	.
2F	man	.	.	.	.	4.f	-sa-	.	.
.	.	4A	-na e	2r	.	.	.	[2dd	-la
.	.	.	.	.	.	8eL	.	.	.
[4G	so-	[4B-y	pun-	.	.	8d	.	.	.
.	.	.	.	.	.	8cJ	.	.	.
=48	=48	=48	=48	=48	=48	=48	=48	=48	=48
4G]	.	4B-]	.	2r	.	4d	.	4dd]	.
4A	-la	2F	-ge,	.	.	4c	-na e	4a	mi
4D	mi	.	.	2d	U-	2f	pun-	4a	ri-
4D	ri-	4B-y	U-	.	.	.	.	4.b-y	-sa-
2E-X	-sa-	4G	-na	4B-y	-na	4g	-ge,	.	.
.	.	.	.	.	.	.	.	8a	.
.	.	2G	man	4B-y	man	4g	mi	2g	.
4C	-na e	.	.	2c	so-	4e	ri-	.	.
[4F	pun-	[4A	so-	.	.	[4a	-sa-	[4f	-na e
=49	=49	=49	=49	=49	=49	=49	=49	=49	=49
4F]	.	4A]	.	2d	-la	8aL]	.	4f]	.
.	.	.	.	.	.	8g	.	.	.
4D	.	4A	-la	.	.	8f	.	4.ff	pun-
.	.	.	.	.	.	8eJ	.	.	.
2D	-ge,	4r	.	2A	mi	4d	.	.	.
.	.	.	.	.	.	.	.	8ee	.
.	.	[4f	mi	.	.	4a	-na e	4.dd	.
1r	.	4f]	.	2A	ri-	4.a	pun-	.	.
.	.	.	.	.	.	.	.	16cc#iLL	.
.	.	.	.	.	.	.	.	16bnXiJJ	.
.	.	4e	ri-	.	.	.	.	4cc#i	.
.	.	.	.	.	.	8g	.	.	.
.	.	4d	-sa-	4.B-y	-sa-	8fL	.	2dd	-ge,
.	.	.	.	.	.	8eJ	.	.	.
.	.	4G	-na e	.	.	[4d	.	.	.
.	.	.	.	8A	-na e	.	.	.	.
=50	=50	=50	=50	=50	=50	=50	=50	=50	=50
1r	.	8B-yL	pun-	2G	pun-	8dL]	.	2r	.
.	.	8c	.	.	.	8cJ	.	.	.
.	.	8d	.	.	.	2B-y	.	.	.
.	.	8eJ	.	.	.	.	.	.	.
.	.	2f	.	2F	-ge,	.	.	2cc	Et
.	.	.	.	.	.	4A	-ge,	.	.
2BB-y	Et	2f	-ge,	4r	.	4r	.	4dd	per-
.	.	.	.	4F	Et	2B-y	Et	2dd	-che’l
4BB-y	per-	4r	.	4F	per-	.	.	.	.
[4E-i	-che’l	4B-y	Et	[4G	-che’l	4B-y	per-	4b-y	mio
=51	=51	=51	=51	=51	=51	=51	=51	=51	=51
4E-]	.	4B-y	per-	4G]	.	2e-i	-che’l	4b-y	mar-
4C	mio	2c	-che’l	4G	mio	.	.	2ee-i	-tir
4C	mar-	.	.	4G	mar-	4c	mio	.	.
2F	-tir	4c	mio	2A	-tir	4c	mar-	2cc	non
.	.	4c	mar-	.	.	2f	-tir	.	.
2D	non	2d	-tir	4A	non	.	.	4.ff	giun-
.	.	.	.	4.B-y	giun-	4d	non	.	.
.	.	.	.	.	.	.	.	8eei	.
[4G	giun-	4d	non	.	.	[4b-y	giun-	[4dd	.
.	.	.	.	8c	.	.	.	.	.
=52	=52	=52	=52	=52	=52	=52	=52	=52	=52
4G]	.	4g	giun-	4d	.	4b-]	.	4dd]	.
4A	-ga a	4e	-ga a	2A	-ga a	4a	-ga a	4cc	-ga a
1D	ri-	4.d	ri-	.	.	2a	ri-	4.f	ri-
.	.	.	.	4.f	ri-	.	.	.	.
.	.	8e	.	.	.	.	.	8g	.
.	.	2f	.	.	.	2d	-va,	1a	.
.	.	.	.	8e	.	.	.	.	.
.	.	.	.	4.d	.	.	.	.	.
2A	-va,	2e	-va,	.	.	2r	.	.	.
.	.	.	.	8c#i	.	.	.	.	.
.	.	.	.	4c#i	.	.	.	.	.
=53	=53	=53	=53	=53	=53	=53	=53	=53	=53
4r	.	4r	.	4d	-va,	2f#X	Mil-	1a	-va,
4D	Mil-	4d	Mil-	2A	Mil-	.	.	.	.
4D	-le	4d	-le	.	.	4f#i	-le	.	.
4D	vol-	4d	vol-	4A	-le	4f#i	vol-	.	.
4C	-te il	4e	-te il	4c	vol-	4g	-te il	1r	.
4D	dì	4f	dì	4B-y	-te il	4d	dì	.	.
2E-X	mo-	[2g	mo-	2G	dì	[2b-y	mo-	.	.
=54	=54	=54	=54	=54	=54	=54	=54	=54	=54
2D	-ro,	4g]	.	2.d	mo-	4b-]	.	1r	.
.	.	4f#i	-ro,	.	.	4a	-ro,	.	.
2r	.	2r	.	.	.	2r	.	.	.
.	.	.	.	4A	-ro,	.	.	.	.
2.D	Mil-	4r	.	4r	.	4r	.	4r	.
.	.	2d	Mil-	2A	Mil-	2f#X	Mil-	4dd	Mil-
.	.	.	.	.	.	.	.	4dd	-le
4D	-le	4d	-le	4A	-le	4f#i	-le	4dd	vol-
=55	=55	=55	=55	=55	=55	=55	=55	=55	=55
4F	vol-	4A	vol-	4.A	vol-	4a	vol-	4cc	-te il
4D	-te il	4d	-te il	.	.	4f	-te il	4dd	dì
.	.	.	.	8B-y	.	.	.	.	.
2C	dì	4G	dì	4c	.	2g	dì	2ee-X	mo-
.	.	2g	mo-	4G	-te il	.	.	.	.
2.G	mo-	.	.	4G	dì	2.b-y	mo-	1dd	-ro,
.	.	4d	-ro,	2g	mo-	.	.	.	.
.	.	4r	.	.	.	.	.	.	.
4D	-ro,	4d	e	4f#i	-ro,	4a	-ro,	.	.
=56	=56	=56	=56	=56	=56	=56	=56	=56	=56
4r	.	4B-y	mil-	4r	.	4r	.	4r	.
4G	e	4G	-le	2d	e	4b-y	e	4g	e
4G	mil-	2d	na-	.	.	4g	mil-	4b-y	mil-
4D	-le	.	.	4f	mil-	4a	-le	4a	-le
2G	na-	4d	-sco,	4d	-le	2b-y	na-	8gL	na-
.	.	.	.	.	.	.	.	8a	.
.	.	4d	e	2g	na-	.	.	8b-y	.
.	.	.	.	.	.	.	.	8ccJ	.
2D	-sco,	4d	mil-	.	.	4a	-sco,	8ddL	.
.	.	.	.	.	.	.	.	8eeJ	.
.	.	4A	-le	4f	-sco,	4a	e	[4ff	.
=57	=57	=57	=57	=57	=57	=57	=57	=57	=57
1r	.	2B-y	na-	2d	e	4f	mil-	8ffL]	.
.	.	.	.	.	.	.	.	8eeJ	.
.	.	.	.	.	.	4g	-le	2dd	.
.	.	4A	-sco,	4f	mil-	2a	na-	.	.
.	.	4A	Tan-	4e	-le	.	.	4cc#i	.
4r	.	4B-y	-to	4.d	na-	4d	-sco,	2dd	-sco,
4G	Tan-	4G	da	.	.	4b-y	Tan-	.	.
.	.	.	.	8c	.	.	.	.	.
4G	-to	4B-y	la	8dL	.	4b-y	-to	2r	.
.	.	.	.	8eJ	.	.	.	.	.
4F	da	4c	sa-	[4f	.	4a	da	.	.
=58	=58	=58	=58	=58	=58	=58	=58	=58	=58
4B-y	la	4.d	-lu-	8fL]	.	4f	la	0r	.
.	.	.	.	8eJ	.	.	.	.	.
4B-y	sa-	.	.	4.d	.	4g	sa-	.	.
.	.	8e	.	.	.	.	.	.	.
2A	-lu-	4f	.	.	.	4.a	-lu-	.	.
.	.	.	.	8c#i	.	.	.	.	.
.	.	4e	-te	4c#i	.	.	.	.	.
.	.	.	.	.	.	16gLL	.	.	.
.	.	.	.	.	.	16aJJ	.	.	.
4G	-te	4g	mia	2d	.	4b-y	.	.	.
2d	mia	4f	son	.	.	4a	-te	.	.
.	.	2e	lun-	2A	-sco,	2a	mia	.	.
4c	son	.	.	.	.	.	.	.	.
=59	=59	=59	=59	=59	=59	=59	=59	=59	=59
2B-y	lun-	2d	-ge,	2r	.	4g	son	4r	.
.	.	.	.	.	.	2f	lun-	4dd	Tan-
2A	-ge,	2r	.	4r	.	.	.	4dd	-to
.	.	.	.	4A	Tan-	4e	-ge,	4cc	da
2D	Tan-	1r	.	4B-y	-to	4r	.	4ff	la
.	.	.	.	4A	da	2a	Tan-	4ff	sa-
4C	-to	.	.	4c	la	.	.	2ee	-lu-
4C	da	.	.	4c	sa-	[4g	-to	.	.
=60	=60	=60	=60	=60	=60	=60	=60	=60	=60
4.G	la	1r	.	2.B-y	-lu-	4g]	.	4dd	-te
.	.	.	.	.	.	4d	da	2dd	mia
8G	sa-	.	.	.	.	.	.	.	.
4F	-lu-	.	.	.	.	4f	la	.	.
4F	-te	.	.	4A	-te	4f	sa-	4cc	son
8GL	mia	4r	.	2B-y	mia	2.d	-lu-	4.b-y	lun-
8A	.	.	.	.	.	.	.	.	.
8B-y	.	4G	Tan-	.	.	.	.	.	.
8cJ	.	.	.	.	.	.	.	8a	.
4d	.	4G	-to	4G	son	.	.	8b-yL	.
.	.	.	.	.	.	.	.	8gJ	.
4D	son	4F	da	[4d	lun-	4d	-te	[4a	.
=61	=61	=61	=61	=61	=61	=61	=61	=61	=61
2G	lun-	4B-y	la	4d]	.	4d	mia	8aL]	.
.	.	.	.	.	.	.	.	8gJ	.
.	.	4B-y	sa-	4G	-ge,	4d	son	4.g	.
2D	-ge,	2A	-lu-	4r	.	2d	lun-	.	.
.	.	.	.	.	.	.	.	8f#i	.
.	.	.	.	4A	Tan-	.	.	4f#i	.
4r	.	4G	-te	4B-y	-to	4d	-ge,	2g	-ge,
4G	Tan-	4.d	mia	4G	da	4b-y	Tan-	.	.
4G	-to	.	.	4B-y	la	4b-y	-to	2r	.
.	.	8e	.	.	.	.	.	.	.
4F	da	[4f	.	4c	sa-	4a	da	.	.
=62	=62	=62	=62	=62	=62	=62	=62	=62	=62
4B-y	la	8fL]	.	4.d	-lu-	4f	la	0r	.
.	.	8eJ	.	.	.	.	.	.	.
4B-y	sa-	2d	.	.	.	4g	sa-	.	.
.	.	.	.	8e	.	.	.	.	.
2A	-lu-	.	.	4f	.	4.a	-lu-	.	.
.	.	4c#i	son	4e	-te	.	.	.	.
.	.	.	.	.	.	16gLL	.	.	.
.	.	.	.	.	.	16aJJ	.	.	.
4G	-te	2d	lun-	4g	mia	4b-y	.	.	.
2d	mia	.	.	4f	son	4a	-te	.	.
.	.	2A	-ge,	2e	lun-	2a	mia	.	.
4c	son	.	.	.	.	.	.	.	.
=63	=63	=63	=63	=63	=63	=63	=63	=63	=63
2B-y	lun-	2r	.	2d	-ge,	4g	son	4r	.
.	.	.	.	.	.	2f	lun-	4dd	Tan-
2A	-ge,	4r	.	2r	.	.	.	4dd	-to
.	.	4A	Tan-	.	.	4e	-ge,	4cc	da
2D	Tan-	4B-y	-to	1r	.	4r	.	4ff	la
.	.	4A	da	.	.	2a	Tan-	4ff	sa-
4C	-to	4c	la	.	.	.	.	2ee	-lu-
4C	da	4c	sa-	.	.	[4g	-to	.	.
=64	=64	=64	=64	=64	=64	=64	=64	=64	=64
4.G	la	2.B-y	-lu-	1r	.	4g]	.	4dd	-te
.	.	.	.	.	.	4d	da	2dd	mia
8G	sa-	.	.	.	.	.	.	.	.
4F	-lu-	.	.	.	.	4f	la	.	.
4F	-te	4A	-te	.	.	4f	sa-	4cc	son
8GL	mia	2B-y	mia	4r	.	2d	-lu-	2.b-y	lun-
8A	.	.	.	.	.	.	.	.	.
8B-y	.	.	.	4G	Tan-	.	.	.	.
8cJ	.	.	.	.	.	.	.	.	.
4d	.	4G	son	4G	-to	4g	-te	.	.
4D	son	[4d	lun-	4F	da	[4a	mia	4a	-ge,
=65	=65	=65	=65	=65	=65	=65	=65	=65	=65
2G	lun-	2d]	.	4B-y	la	4a]	.	4r	.
.	.	.	.	4B-y	sa-	4g	son	2dd	Tan-
4D	-ge,	2d	-ge,	2A	-lu-	2f#X	lun-	.	.
4D	Tan-	.	.	.	.	.	.	4dd	-to
4E-X	-to	4r	.	1G	-te	[1gl	-ge.	4b-y	da
4C	da	4c	Tan-	.	.	.	.	2ee-i	la
4C	la	4c	-to	.	.	.	.	.	.
4BBnX	sa-	4d	da	.	.	.	.	4dd	sa-
=66	=66	=66	=66	=66	=66	=66	=66	=66	=66
4.C	-lu-	4.e-X	la	2.c	mia	0g_	.	4cc	-lu-
.	.	.	.	.	.	.	.	4cc	-te
8C	-te	8e-i	sa-	.	.	.	.	.	.
4C	mia	4e-i	-lu-	.	.	.	.	4cc	mia
4G	son	4d	-te	4d	son	.	.	4bnX	son
1C	lun-	4c	mia	1e-X	lun-	.	.	1cc	lun-
.	.	4G	son	.	.	.	.	.	.
.	.	2c	lun-	.	.	.	.	.	.
=67	=67	=67	=67	=67	=67	=67	=67	=67	=67
00Gl	-ge.	00BnXl	-ge.	00dl	-ge.	00g]	.	00ddl	-ge.
==	==	==	==	==	==	==	==	==	==
*-	*-	*-	*-	*-	*-	*-	*-	*-	*-
!!!system-decoration: [*]
!!!RDF**kern: i = editorial accidental
!!!RDF**kern: l = terminal long
!!!ENC: Jessie Ann Owens and Scott Metcalfe
!!!END: 2024/11/09
!!!EED: Jessie Ann Owens and Scott Metcalfe
!!!EEV: 2024/11/09
!!!YEC: Copyright 2024 Jessie Ann Owens and Scott Metcalfe, All Rights Reserved
!!!ONB: Translated from MusicXML on 2024/11/09
!!!verovio: header encoded
!!!header-left: Edited by @{ENC} (2024)\n
!!!header-right:
!!!header-center: